app/images/svg/phone.svg

<svg width="30" height="30" viewBox="0 0 30 30" fill="none" xmlns="http://www.w3.org/2000/svg">
<g clip-path="url(#clip0_513_55)">
<path d="M4.59959 0.0761719C4.23044 0.199219 4.14841 0.257812 3.20505 1.04297C1.24216 2.67773 0.732397 3.22852 0.404272 4.07227C0.0820066 4.9043 -0.0820559 6.27539 0.0527098 7.06055C0.316382 8.625 1.68748 11.6777 3.35154 14.4082C5.91794 18.6094 8.63669 21.668 12.1875 24.3398C15.0176 26.4668 18.4336 28.4062 21.1113 29.4082C22.4414 29.9062 22.6933 29.9648 23.6719 29.9648C25.4179 29.9648 26.4551 29.5664 27.4629 28.5176C28.207 27.7383 29.7129 25.9043 29.8418 25.6113C29.9355 25.4121 29.9648 25.2246 29.9648 24.873C29.9648 24.3164 29.8125 23.9648 29.4023 23.5781C29.2676 23.4434 27.8437 22.3242 26.25 21.0938C23.0918 18.6504 22.8633 18.5039 22.0605 18.3867C21.3515 18.2871 20.8711 18.3867 20.0976 18.7969C18.5625 19.6113 18.5976 19.5938 18.1406 19.5938C17.6133 19.5938 17.332 19.4707 16.6875 18.9668C14.7597 17.4609 12.8613 15.5859 11.25 13.5938C10.5644 12.7441 10.4062 12.4219 10.4062 11.8594C10.4062 11.4023 10.3886 11.4375 11.2031 9.90234C11.6133 9.12891 11.7129 8.64844 11.6133 7.93945C11.4961 7.13672 11.3496 6.9082 8.90623 3.75C7.67576 2.15625 6.55662 0.732422 6.42185 0.597656C6.29294 0.457031 6.05271 0.275391 5.90037 0.193359C5.5488 0.0175781 4.94529 -0.0351562 4.59959 0.0761719ZM5.49021 1.37109C5.72459 1.56445 10.0781 7.20703 10.2539 7.54102C10.4238 7.86914 10.4824 8.53125 10.3711 8.88867C10.3301 9.01172 10.1133 9.42773 9.89646 9.81445C9.35154 10.7637 9.25193 11.0508 9.21677 11.6895C9.16404 12.6504 9.37498 13.1602 10.289 14.3086C11.8535 16.2656 13.7226 18.1348 15.6621 19.6816C16.8457 20.6309 17.3672 20.8418 18.334 20.7891C18.9375 20.7539 19.2715 20.6309 20.2207 20.0859C20.5898 19.875 20.9883 19.6699 21.1113 19.6289C21.4687 19.5176 22.1308 19.5703 22.459 19.7461C22.7929 19.9219 28.4355 24.2754 28.6289 24.5098C28.8105 24.7266 28.8164 25.0605 28.6406 25.2891C28.2715 25.7695 27.0293 27.2285 26.6133 27.6621C25.9863 28.3242 25.5761 28.541 24.6386 28.7051C24.082 28.8047 23.1035 28.793 22.6758 28.6816C21.7265 28.4355 19.7344 27.5684 18.1465 26.7129C13.4941 24.1992 9.97263 21.3398 7.16599 17.8066C4.71091 14.7129 2.16794 10.1836 1.37693 7.50586C1.22458 6.97852 1.21873 6.90234 1.24802 6.12891C1.30076 4.73438 1.52927 4.14844 2.30857 3.41602C2.7363 3.01758 4.30662 1.66992 4.71091 1.35938C4.93943 1.18359 5.27341 1.18945 5.49021 1.37109Z" fill="#666981"/>
<path d="M20.6191 1.40039C20.4961 1.5293 20.4492 1.62891 20.4492 1.78711C20.4492 2.10938 20.584 2.25586 21.082 2.4668C22.6934 3.13477 23.9883 4.00195 25.1074 5.16211C26.168 6.25781 26.9121 7.41797 27.5391 8.92383C27.75 9.42773 27.873 9.55078 28.1895 9.55078C28.5176 9.55078 28.7695 9.31641 28.7695 9.01758C28.7695 8.61328 28.207 7.37109 27.5684 6.35742C27.0293 5.50781 26.6191 4.99805 25.8105 4.18945C25.002 3.38086 24.4922 2.9707 23.6426 2.43164C22.6465 1.80469 21.3867 1.23047 21 1.23047C20.8477 1.23047 20.748 1.27734 20.6191 1.40039Z" fill="#666981"/>
<path d="M18.9609 5.92387C18.7792 6.13481 18.7617 6.46879 18.914 6.65629C18.9667 6.72661 19.3183 6.93169 19.6933 7.11333C21.1816 7.83403 22.166 8.82426 22.9101 10.3477C23.1035 10.7461 23.3144 11.0977 23.373 11.1329C23.5839 11.2442 23.8828 11.2032 24.082 11.0332C24.2578 10.8868 24.2695 10.8575 24.246 10.5821C24.2285 10.3946 24.1289 10.0957 23.9765 9.77348C23.1562 8.06255 21.6386 6.60356 19.9687 5.91215C19.4121 5.68364 19.1601 5.6895 18.9609 5.92387Z" fill="#666981"/>
<path d="M17.3202 10.4355C17.1562 10.6289 17.121 10.9336 17.2265 11.1386C17.2616 11.1972 17.4374 11.3261 17.6249 11.4199C18.0351 11.6308 18.3632 11.959 18.5976 12.4043C18.8026 12.7851 19.0546 12.9258 19.3358 12.8203C19.9862 12.5742 19.8573 11.8183 19.0194 10.9804C18.5565 10.5176 18.0761 10.2539 17.7069 10.2539C17.5136 10.2539 17.4433 10.289 17.3202 10.4355Z" fill="#666981"/>
</g>
<defs>
<clipPath id="clip0_513_55">
<rect width="30" height="30" fill="white"/>
</clipPath>
</defs>
</svg>

<svg width="30" height="30" viewBox="0 0 30 30" fill="none" xmlns="http://www.w3.org/2000/svg"><g clip-path="url(#clip0_513_55)" fill="#666981"><path d="M4.6.076c-.37.123-.452.182-1.395.967C1.242 2.678.732 3.229.405 4.073c-.324.83-.488 2.201-.353 2.987.263 1.564 1.634 4.617 3.299 7.347 2.566 4.201 5.285 7.26 8.835 9.932 2.83 2.127 6.247 4.066 8.924 5.068 1.33.498 1.582.557 2.56.557 1.747 0 2.784-.399 3.792-1.447.744-.78 2.25-2.614 2.379-2.907.094-.199.123-.386.123-.738 0-.557-.152-.908-.563-1.295-.134-.135-1.558-1.254-3.152-2.484-3.158-2.444-3.387-2.59-4.19-2.707-.708-.1-1.189 0-1.962.41-1.535.814-1.5.797-1.957.797-.528 0-.809-.123-1.453-.627-1.928-1.506-3.827-3.381-5.438-5.373-.686-.85-.844-1.172-.844-1.735 0-.457-.017-.421.797-1.957.41-.773.51-1.254.41-1.963-.117-.802-.263-1.03-2.707-4.189C7.676 2.156 6.556.732 6.422.598A2.403 2.403 0 005.9.193C5.55.018 4.945-.035 4.6.076zm.89 1.295c.235.193 4.588 5.836 4.764 6.17.17.328.228.99.117 1.348-.04.123-.258.539-.475.925-.544.95-.644 1.237-.68 1.876-.052.96.159 1.47 1.073 2.619a34.768 34.768 0 005.373 5.373c1.184.949 1.705 1.16 2.672 1.107.604-.035.938-.158 1.887-.703.369-.211.767-.416.89-.457.358-.111 1.02-.059 1.348.117.334.176 5.977 4.53 6.17 4.764.181.217.187.55.012.78-.37.48-1.612 1.939-2.028 2.372-.627.662-1.037.879-1.974 1.043-.557.1-1.535.088-1.963-.023-.95-.246-2.942-1.114-4.53-1.97-4.652-2.513-8.173-5.372-10.98-8.905-2.455-3.094-4.998-7.623-5.79-10.301-.151-.527-.157-.604-.128-1.377.053-1.395.281-1.98 1.06-2.713.428-.398 1.999-1.746 2.403-2.057a.633.633 0 01.78.012zm15.13.029c-.124.13-.17.229-.17.387 0 .322.134.469.632.68 1.611.668 2.906 1.535 4.025 2.695 1.061 1.096 1.805 2.256 2.432 3.762.211.504.334.627.65.627.329 0 .58-.235.58-.533 0-.405-.562-1.647-1.2-2.66-.54-.85-.95-1.36-1.758-2.169-.809-.808-1.319-1.218-2.168-1.757C22.646 1.805 21.387 1.23 21 1.23c-.152 0-.252.047-.38.17zm-1.66 4.524c-.18.21-.198.545-.046.732.053.07.404.276.78.457 1.488.721 2.472 1.711 3.216 3.235.194.398.404.75.463.785.21.111.51.07.709-.1.176-.146.188-.175.164-.45-.017-.188-.117-.487-.27-.81-.82-1.71-2.337-3.17-4.007-3.86-.557-.23-.809-.224-1.008.01zm-1.64 4.511a.674.674 0 00-.093.704c.035.058.21.187.398.28.41.212.738.54.973.985.205.381.457.522.738.416.65-.246.521-1.002-.317-1.84-.462-.462-.943-.726-1.312-.726-.193 0-.264.035-.387.181z"/></g><defs><clipPath id="clip0_513_55"><path fill="#fff" d="M0 0h30v30H0z"/></clipPath></defs></svg>
